www/assets/icons/bedroom_parent.svg

<svg xmlns="http://www.w3.org/2000/svg" width="24" height="24" viewBox="0 0 24 24" fill='currentColor'><path d="M16.5 12h-9c-.55 0-1 .45-1 1v1h11v-1c0-.55-.45-1-1-1m-5.25-3.5h-4v2h4zm5.5 0h-4v2h4z"/><path d="M20 2H4c-1.1 0-2 .9-2 2v16c0 1.1.9 2 2 2h16c1.1 0 2-.9 2-2V4c0-1.1-.9-2-2-2m-1 15h-1.5v-1.5h-11V17H5v-3.83c0-.66.25-1.26.65-1.72V9c0-1.1.9-2 2-2H11c.37 0 .72.12 1 .32.28-.2.63-.32 1-.32h3.35c1.1 0 2 .9 2 2v2.45c.4.46.65 1.06.65 1.72z"/></svg>

<svg width="24" height="24" viewBox="0 0 24 24" xmlns="http://www.w3.org/2000/svg" fill='currentColor'><path d="M16.5 12H7.5C6.95 12 6.5 12.45 6.5 13V14H17.5V13C17.5 12.45 17.05 12 16.5 12Z"/><path d="M11.25 8.5H7.25V10.5H11.25V8.5Z"/><path d="M16.75 8.5H12.75V10.5H16.75V8.5Z"/><path d="M20 2H4C2.9 2 2 2.9 2 4V20C2 21.1 2.9 22 4 22H20C21.1 22 22 21.1 22 20V4C22 2.9 21.1 2 20 2ZM19 17H17.5V15.5H6.5V17H5V13.17C5 12.51 5.25 11.91 5.65 11.45V9C5.65 7.9 6.55 7 7.65 7H11C11.37 7 11.72 7.12 12 7.32C12.28 7.12 12.63 7 13 7H16.35C17.45 7 18.35 7.9 18.35 9V11.45C18.75 11.91 19 12.51 19 13.17V17Z"/></svg>
